assets/img/Twitter.svg

<svg xmlns="http://www.w3.org/2000/svg" width="39" height="39" viewBox="0 0 39 39">
  <path fill="#1EAB89" fill-rule="evenodd" d="M100,0 L135,0 C136.104569,-2.02906125e-16 137,0.8954305 137,2 L137,37 C137,38.1045695 136.104569,39 135,39 L100,39 C98.8954305,39 98,38.1045695 98,37 L98,2 C98,0.8954305 98.8954305,2.02906125e-16 100,0 Z M120.208683,11.884002 C118.506162,12.5036649 117.430169,14.101018 117.552751,15.8498443 L117.593611,16.5245883 L116.912603,16.4419665 C114.433733,16.12525 112.268127,15.0511677 110.429405,13.2472603 L109.530474,12.3521917 L109.298931,13.0131654 C108.808605,14.486586 109.121869,16.0426283 110.143381,17.08917 C110.688188,17.667522 110.565606,17.7501437 109.625815,17.4058865 C109.298931,17.2957242 109.012907,17.2131025 108.985667,17.2544134 C108.890326,17.3508054 109.21721,18.6039014 109.475993,19.0996317 C109.830117,19.7881459 110.551986,20.4628899 111.341956,20.8622282 L112.009344,21.1789448 L111.219374,21.1927151 C110.456645,21.1927151 110.429405,21.2064853 110.511126,21.4956613 C110.783529,22.3907299 111.859522,23.3408796 113.058096,23.7539882 L113.902546,24.0431642 L113.167058,24.4838133 C112.077444,25.1172464 110.797149,25.4752739 109.516853,25.5028144 C108.903946,25.5165847 108.4,25.5716659 108.4,25.6129767 C108.4,25.7506796 110.06166,26.5218156 111.028692,26.8247619 C113.929787,27.7198304 117.375688,27.3342624 119.96352,25.8057607 C121.802242,24.7179082 123.640964,22.5559733 124.499035,20.4628899 C124.96212,19.3474968 125.425206,17.3094945 125.425206,16.3318043 C125.425206,15.6983711 125.466066,15.6157494 126.228795,14.8583837 C126.678261,14.4177346 127.100486,13.9357746 127.182207,13.7980717 C127.318409,13.5364363 127.304788,13.5364363 126.61016,13.7705311 C125.452446,14.1836397 125.289004,14.1285586 125.861051,13.5088957 C126.283276,13.0682466 126.787222,12.26957 126.787222,12.0354752 C126.787222,11.9941643 126.58292,12.0630157 126.351377,12.1869483 C126.106214,12.3246512 125.561407,12.5312054 125.152802,12.655138 L124.417314,12.8892329 L123.749926,12.4348134 C123.382181,12.1869483 122.864615,11.9115426 122.592212,11.8289209 C121.897583,11.6361369 120.83521,11.6636774 120.208683,11.884002 Z" transform="translate(-98)"/>
</svg>

<?xml version="1.0" encoding="UTF-8" standalone="no"?>
<svg width="39" xmlns="http://www.w3.org/2000/svg" viewBox="0 0 39 39" height="39">
 <path fill-rule="evenodd" d="m100 0h35c1.1-2.0291e-16 2 0.89543 2 2v35c0 1.105-0.9 2-2 2h-35c-1.105 0-2-0.895-2-2v-35c0-1.1046 0.895-2 2-2zm20.21 11.884c-1.7 0.62-2.78 2.217-2.66 3.966l0.04 0.675-0.68-0.083c-2.48-0.317-4.64-1.391-6.48-3.195l-0.9-0.895-0.23 0.661c-0.49 1.474-0.18 3.03 0.84 4.076 0.55 0.579 0.43 0.661-0.51 0.317-0.33-0.11-0.62-0.193-0.64-0.152-0.1 0.097 0.23 1.35 0.49 1.846 0.35 0.688 1.07 1.363 1.86 1.762l0.67 0.317-0.79 0.014c-0.76 0-0.79 0.013-0.71 0.303 0.27 0.895 1.35 1.845 2.55 2.258l0.84 0.289-0.73 0.441c-1.09 0.633-2.37 0.991-3.65 1.019-0.62 0.014-1.12 0.069-1.12 0.11 0 0.138 1.66 0.909 2.63 1.212 2.9 0.895 6.35 0.509 8.93-1.019 1.84-1.088 3.68-3.25 4.54-5.343 0.46-1.116 0.93-3.154 0.93-4.131 0-0.634 0.04-0.716 0.8-1.474 0.45-0.44 0.87-0.922 0.95-1.06 0.14-0.262 0.12-0.262-0.57-0.027-1.16 0.413-1.32 0.358-0.75-0.262 0.42-0.441 0.93-1.239 0.93-1.474 0-0.041-0.21 0.028-0.44 0.152-0.24 0.138-0.79 0.344-1.2 0.468l-0.73 0.234-0.67-0.454c-0.37-0.248-0.89-0.523-1.16-0.606-0.69-0.193-1.75-0.165-2.38 0.055z" transform="translate(-98)" fill="#1EAB89"/>
</svg>
